X:95
T:Harper's Frolic
S:Jim Coon to CoMandoList TOW
R:reel
M:2/4
L:1/8
Q:1/4=120
K:D
A/G/|"D"FA DA/G/|FA Dd|
"A7"cd ec|"D"d/c/d/e/ "A7"dA/G/|!
"D"FA DA/G/|FA Dd|
"Em"cd "A7"ec|"D"dd d:|!
d/e/|"D"fd d/e/f|"G"ge eg|
"D"fe df|"A7"e/d/c/B/ Ad/e/|!
"D"fd d/e/f|"G"ge "Em"eg|
"D"f/e/d/f/ "A7"e/d/c/e/|"D"dd d:|
